; G-code generated by Image2Gcode App
; Source: anime-girl-drawing-thumbnail-2.jpg, Date: 2025-07-25 23:33:26
; Settings: Invert=False, Blur=1.0, Threshold=128
; NOTE: Coordinates are in STEPS, not millimeters (calibrated for this plotter)
G21 ; Use millimeters (ignored by Arduino - coordinates are steps)
G90 ; Use absolute positioning
G0 Z100.0

; --- Start Drawing ---
G0 Z100.0
G0 X3312 Y-1382
G0 Z0.0
G1 X3312 Y-1382
G1 X3325 Y-1395
G1 X3325 Y-1408
G1 X3325 Y-1421
G1 X3338 Y-1434
G1 X3338 Y-1447
G1 X3352 Y-1461
G1 X3352 Y-1474
G1 X3352 Y-1487
G1 X3352 Y-1500
G1 X3352 Y-1513
G1 X3352 Y-1526
G1 X3352 Y-1539
G1 X3365 Y-1553
G1 X3365 Y-1566
G1 X3365 Y-1579
G1 X3365 Y-1592
G1 X3378 Y-1605
G1 X3378 Y-1618
G1 X3378 Y-1632
G1 X3378 Y-1645
G1 X3378 Y-1658
G1 X3378 Y-1671
G1 X3378 Y-1684
G1 X3378 Y-1697
G1 X3392 Y-1710
G1 X3392 Y-1724
G1 X3392 Y-1737
G1 X3392 Y-1750
G1 X3405 Y-1763
G1 X3405 Y-1776
G1 X3405 Y-1789
G1 X3405 Y-1802
G1 X3405 Y-1816
G1 X3405 Y-1829
G1 X3418 Y-1842
G1 X3418 Y-1855
G1 X3418 Y-1868
G1 X3418 Y-1881
G1 X3418 Y-1894
G1 X3418 Y-1908
G1 X3418 Y-1921
G1 X3418 Y-1934
G1 X3418 Y-1947
G1 X3418 Y-1960
G1 X3432 Y-1973
G1 X3432 Y-1987
G1 X3432 Y-2000
G1 X3432 Y-2013
G1 X3445 Y-2026
G1 X3445 Y-2039
G1 X3445 Y-2052
G1 X3445 Y-2065
G1 X3445 Y-2079
G1 X3458 Y-2092
G1 X3458 Y-2105
G1 X3458 Y-2118
G1 X3458 Y-2131
G1 X3458 Y-2144
G1 X3458 Y-2157
G1 X3472 Y-2171
G1 X3472 Y-2184
G1 X3472 Y-2197
G1 X3472 Y-2210
G1 X3472 Y-2223
G1 X3472 Y-2236
G1 X3485 Y-2250
G1 X3485 Y-2263
G1 X3485 Y-2276
G1 X3499 Y-2289
G1 X3499 Y-2302
G1 X3499 Y-2315
G1 X3499 Y-2328
G1 X3499 Y-2342
G1 X3512 Y-2355
G1 X3512 Y-2368
G1 X3512 Y-2381
G1 X3512 Y-2394
G1 X3512 Y-2407
G1 X3525 Y-2420
G1 X3525 Y-2434
G1 X3525 Y-2447
G1 X3525 Y-2460
G1 X3525 Y-2473
G1 X3539 Y-2486
G1 X3539 Y-2499
G1 X3539 Y-2512
G1 X3539 Y-2526
G1 X3539 Y-2539
G1 X3539 Y-2552
G1 X3552 Y-2565
G1 X3552 Y-2578
G1 X3552 Y-2591
G1 X3552 Y-2605
G1 X3565 Y-2618
G1 X3565 Y-2631
G1 X3565 Y-2644
G1 X3565 Y-2657
G1 X3565 Y-2670
G1 X3579 Y-2683
G1 X3579 Y-2697
G1 X3579 Y-2710
G1 X3579 Y-2723
G1 X3579 Y-2736
G1 X3579 Y-2749
G1 X3592 Y-2762
G1 X3592 Y-2775
G1 X3592 Y-2789
G1 X3592 Y-2802
G1 X3592 Y-2815
G1 X3605 Y-2828
G1 X3605 Y-2841
G1 X3605 Y-2854
G1 X3605 Y-2868
G1 X3605 Y-2881
G1 X3619 Y-2894
G1 X3619 Y-2907
G1 X3619 Y-2920
G1 X3619 Y-2933
G1 X3619 Y-2946
G1 X3632 Y-2960
G1 X3632 Y-2973
G1 X3645 Y-2986
G1 X3645 Y-2999
G1 X3645 Y-3012
G1 X3645 Y-3025
G1 X3659 Y-3038
G1 X3659 Y-3052
G1 X3659 Y-3065
G1 X3659 Y-3078
G1 X3659 Y-3091
G1 X3672 Y-3104
G1 X3672 Y-3117
G1 X3672 Y-3131
G1 X3672 Y-3144
G1 X3672 Y-3157
G1 X3686 Y-3170
G1 X3686 Y-3183
G1 X3686 Y-3196
G1 X3686 Y-3209
G1 X3699 Y-3223
G1 X3699 Y-3236
G1 X3712 Y-3249
G1 X3712 Y-3262
G1 X3712 Y-3275
G1 X3712 Y-3288
G1 X3726 Y-3301
G1 X3726 Y-3315
G1 X3726 Y-3328
G1 X3726 Y-3341
G1 X3739 Y-3354
G1 X3739 Y-3367
G1 X3739 Y-3380
G1 X3752 Y-3393
G1 X3752 Y-3407
G1 X3752 Y-3420
G1 X3766 Y-3433
G1 X3766 Y-3446
G1 X3766 Y-3459
G1 X3766 Y-3472
G1 X3779 Y-3486
G1 X3779 Y-3499
G1 X3779 Y-3512
G1 X3779 Y-3525
G1 X3779 Y-3538
G1 X3779 Y-3551
G1 X3792 Y-3564
G1 X3792 Y-3578
G1 X3792 Y-3591
G1 X3792 Y-3604
G1 X3806 Y-3617
G1 X3806 Y-3630
G1 X3806 Y-3643
G1 X3806 Y-3656
G1 X3819 Y-3670
G1 X3819 Y-3683
G1 X3819 Y-3696
G1 X3832 Y-3709
G1 X3832 Y-3722
G1 X3846 Y-3735
G1 X3846 Y-3749
G1 X3846 Y-3762
G1 X3846 Y-3775
G1 X3859 Y-3788
G1 X3859 Y-3801
G1 X3859 Y-3814
G1 X3873 Y-3827
G1 X3873 Y-3841
G1 X3873 Y-3854
G1 X3886 Y-3867
G1 X3886 Y-3880
G1 X3886 Y-3893
G1 X3899 Y-3906
G1 X3899 Y-3919
G1 X3899 Y-3933
G1 X3899 Y-3946
G1 X3913 Y-3959
G1 X3926 Y-3972
G1 X3926 Y-3985
G1 X3939 Y-3998
G1 X3939 Y-4011
G1 X3953 Y-4025
G1 X3953 Y-4038
G1 X3953 Y-4051
G1 X3966 Y-4064
G1 X3979 Y-4077
G1 X3979 Y-4090
G1 X3993 Y-4104
G1 X3993 Y-4117
G1 X3993 Y-4130
G1 X4006 Y-4143
G1 X4006 Y-4156
G1 X4019 Y-4169
G1 X4019 Y-4182
G1 X4033 Y-4196
G1 X4033 Y-4209
G1 X4033 Y-4222
G1 X4046 Y-4235
G1 X4060 Y-4248
G1 X4060 Y-4261
G1 X4073 Y-4274
G1 X4073 Y-4288
G1 X4086 Y-4301
G1 X4086 Y-4314
G1 X4100 Y-4327
G1 X4100 Y-4340
G1 X4113 Y-4353
G1 X4113 Y-4367
G1 X4126 Y-4380
G1 X4140 Y-4393
G1 X4140 Y-4406
G1 X4153 Y-4419
G1 X4153 Y-4432
G1 X4166 Y-4445
G1 X4180 Y-4459
G1 X4180 Y-4472
G1 X4193 Y-4485
G0 Z100.0
G0 X4193 Y-4485
G0 Z0.0
G1 X4193 Y-4485
G1 X4193 Y-4498
G0 Z100.0
G0 X4193 Y-4498
G0 Z0.0
G1 X4193 Y-4498
G1 X4193 Y-4511
G0 Z100.0
G0 X4193 Y-4511
G0 Z0.0
G1 X4193 Y-4511
G1 X4193 Y-4524
G1 X4193 Y-4537
G1 X4193 Y-4551
G1 X4180 Y-4564
G1 X4180 Y-4577
G1 X4166 Y-4590
G1 X4153 Y-4603
G1 X4153 Y-4616
G1 X4140 Y-4629
G1 X4126 Y-4643
G1 X4126 Y-4656
G1 X4126 Y-4669
G1 X4126 Y-4682
G1 X4113 Y-4695
G1 X4113 Y-4708
G1 X4113 Y-4722
G1 X4113 Y-4735
G1 X4113 Y-4748
G1 X4113 Y-4761
G1 X4100 Y-4774
G1 X4100 Y-4787
G1 X4100 Y-4800
G1 X4100 Y-4814
G1 X4100 Y-4827
G1 X4100 Y-4840
G1 X4113 Y-4853
G1 X4113 Y-4866
G1 X4100 Y-4879
G1 X4100 Y-4892
G1 X4100 Y-4906
G1 X4113 Y-4919
G1 X4113 Y-4932
G1 X4113 Y-4945
G1 X4113 Y-4958
G1 X4126 Y-4971
G1 X4126 Y-4985
G1 X4140 Y-4998
G1 X4153 Y-5011
G1 X4153 Y-5024
G1 X4166 Y-5037
G1 X4166 Y-5050
G1 X4180 Y-5063
G1 X4180 Y-5077
G1 X4180 Y-5090
G1 X4193 Y-5103
G1 X4193 Y-5116
G1 X4206 Y-5129
G1 X4206 Y-5142
G1 X4220 Y-5155
G1 X4220 Y-5169
G1 X4220 Y-5182
G1 X4233 Y-5195
G1 X4233 Y-5208
G1 X4233 Y-5221
G1 X4247 Y-5234
G1 X4247 Y-5248
G1 X4260 Y-5261
G1 X4260 Y-5274
G1 X4260 Y-5287
G1 X4260 Y-5300
G1 X4260 Y-5313
G1 X4273 Y-5326
G1 X4273 Y-5340
G1 X4273 Y-5353
G1 X4273 Y-5366
G1 X4287 Y-5379
G1 X4287 Y-5392
G1 X4287 Y-5405
G1 X4287 Y-5418
G1 X4287 Y-5432
G1 X4287 Y-5445
G1 X4300 Y-5458
G1 X4300 Y-5471
G1 X4300 Y-5484
G1 X4300 Y-5497
G1 X4313 Y-5510
G1 X4313 Y-5524
G1 X4313 Y-5537
G1 X4327 Y-5550
G1 X4327 Y-5563
G1 X4340 Y-5576
G1 X4340 Y-5589
G1 X4353 Y-5603
G1 X4353 Y-5616
G1 X4353 Y-5629
G1 X4353 Y-5642
G1 X4367 Y-5655
G1 X4380 Y-5668
G1 X4380 Y-5681
G1 X4393 Y-5695
G1 X4393 Y-5708
G1 X4407 Y-5721
G1 X4420 Y-5734
G1 X4420 Y-5747
G1 X4434 Y-5760
G1 X4434 Y-5773
G1 X4447 Y-5787
G1 X4447 Y-5800
G1 X4460 Y-5813
G1 X4460 Y-5826
G1 X4474 Y-5839
G1 X4474 Y-5852
G1 X4474 Y-5866
G1 X4487 Y-5879
G1 X4487 Y-5892
G0 Z100.0
G0 X4487 Y-5892
G0 Z0.0
G1 X4487 Y-5892
G1 X4487 Y-5905
G0 Z100.0
G0 X4487 Y-5905
G0 Z0.0
G1 X4487 Y-5905
G1 X4474 Y-5918
G1 X4460 Y-5918
G1 X4447 Y-5918
G1 X4434 Y-5918
G1 X4420 Y-5918
G1 X4407 Y-5918
G1 X4393 Y-5918
G1 X4380 Y-5918
G1 X4367 Y-5918
G1 X4353 Y-5918
G1 X4340 Y-5931
G1 X4327 Y-5931
G1 X4313 Y-5944
G1 X4300 Y-5944
G1 X4287 Y-5958
G1 X4273 Y-5958
G1 X4260 Y-5971
G1 X4247 Y-5984
G1 X4233 Y-5997
G1 X4220 Y-6010
G1 X4206 Y-6023
G1 X4206 Y-6036
G1 X4193 Y-6050
G1 X4180 Y-6063
G1 X4180 Y-6076
G1 X4166 Y-6089
G1 X4166 Y-6102
G1 X4153 Y-6115
G1 X4153 Y-6128
G1 X4140 Y-6142
G1 X4126 Y-6155
G1 X4126 Y-6168
G1 X4126 Y-6181
G1 X4126 Y-6194
G1 X4113 Y-6207
G1 X4113 Y-6221
G1 X4113 Y-6234
G1 X4113 Y-6247
G1 X4113 Y-6260
G1 X4113 Y-6273
G0 Z100.0
G0 X4153 Y-5958
G0 Z0.0
G1 X4153 Y-5958
G1 X4140 Y-5958
G1 X4126 Y-5958
G1 X4113 Y-5971
G1 X4100 Y-5971
G1 X4086 Y-5984
G1 X4073 Y-5997
G1 X4060 Y-5997
G1 X4046 Y-6010
G1 X4033 Y-6023
G1 X4019 Y-6036
G1 X4006 Y-6050
G1 X3993 Y-6063
G1 X3979 Y-6076
G1 X3966 Y-6089
G1 X3953 Y-6102
G1 X3953 Y-6115
G1 X3939 Y-6128
G1 X3926 Y-6142
G1 X3913 Y-6155
G1 X3899 Y-6168
G1 X3899 Y-6181
G1 X3886 Y-6194
G1 X3886 Y-6207
G1 X3873 Y-6221
G1 X3873 Y-6234
G1 X3859 Y-6247
G1 X3859 Y-6260
G1 X3846 Y-6273
G1 X3846 Y-6286
G1 X3832 Y-6299
G1 X3832 Y-6313
G1 X3832 Y-6326
G1 X3819 Y-6339
G1 X3819 Y-6352
G1 X3819 Y-6365
G1 X3819 Y-6378
G1 X3806 Y-6391
G1 X3806 Y-6405
G1 X3806 Y-6418
G1 X3806 Y-6431
G1 X3806 Y-6444
G1 X3792 Y-6457
G1 X3792 Y-6470
G1 X3792 Y-6484
G1 X3779 Y-6497
G1 X3779 Y-6510
G1 X3779 Y-6523
G1 X3779 Y-6536
G1 X3779 Y-6549
G1 X3779 Y-6562
G1 X3779 Y-6576
G1 X3779 Y-6589
G1 X3779 Y-6602
G1 X3779 Y-6615
G1 X3792 Y-6628
G1 X3792 Y-6641
G1 X3792 Y-6654
G1 X3792 Y-6668
G1 X3792 Y-6681
G1 X3792 Y-6694
G1 X3792 Y-6707
G1 X3792 Y-6720
G1 X3792 Y-6733
G1 X3792 Y-6746
G1 X3792 Y-6760
G1 X3792 Y-6773
G1 X3792 Y-6786
G1 X3806 Y-6799
G1 X3806 Y-6812
G1 X3806 Y-6825
G1 X3806 Y-6839
G1 X3819 Y-6852
G1 X3819 Y-6865
G1 X3819 Y-6878
G1 X3819 Y-6891
G1 X3832 Y-6904
G1 X3832 Y-6917
G1 X3832 Y-6931
G1 X3832 Y-6944
G1 X3846 Y-6957
G1 X3846 Y-6970
G1 X3846 Y-6983
G1 X3846 Y-6996
G1 X3859 Y-7009
G1 X3859 Y-7023
G1 X3859 Y-7036
G1 X3859 Y-7049
G1 X3859 Y-7062
G1 X3873 Y-7075
G1 X3873 Y-7088
G1 X3886 Y-7102
G1 X3886 Y-7115
G1 X3886 Y-7128
G1 X3899 Y-7141
G1 X3899 Y-7154
G1 X3899 Y-7167
G1 X3913 Y-7180
G1 X3913 Y-7194
G1 X3913 Y-7207
G1 X3926 Y-7220
G1 X3926 Y-7233
G1 X3926 Y-7246
G1 X3939 Y-7259
G1 X3939 Y-7272
G1 X3939 Y-7286
G1 X3939 Y-7299
G1 X3953 Y-7312
G1 X3953 Y-7325
G1 X3953 Y-7338
G1 X3953 Y-7351
G1 X3953 Y-7365
G1 X3953 Y-7378
G1 X3966 Y-7391
G1 X3966 Y-7404
G1 X3966 Y-7417
G1 X3966 Y-7430
G1 X3979 Y-7443
G1 X3979 Y-7457
G1 X3979 Y-7470
G1 X3993 Y-7483
G1 X3993 Y-7496
G1 X3993 Y-7509
G1 X3993 Y-7522
G1 X4006 Y-7535
G1 X4006 Y-7549
G1 X4006 Y-7562
G1 X4019 Y-7575
G1 X4019 Y-7588
G1 X4019 Y-7601
G1 X4019 Y-7614
G1 X4019 Y-7627
G1 X4019 Y-7641
G1 X4033 Y-7654
G1 X4033 Y-7667
G1 X4033 Y-7680
G1 X4033 Y-7693
G1 X4033 Y-7706
G1 X4046 Y-7720
G1 X4046 Y-7733
G1 X4046 Y-7746
G1 X4046 Y-7759
G1 X4046 Y-7772
G1 X4060 Y-7785
G1 X4060 Y-7798
G1 X4060 Y-7812
G1 X4060 Y-7825
G1 X4073 Y-7838
G1 X4073 Y-7851
G1 X4073 Y-7864
G1 X4086 Y-7877
G1 X4086 Y-7890
G1 X4086 Y-7904
G1 X4086 Y-7917
G1 X4100 Y-7930
G1 X4100 Y-7943
G1 X4113 Y-7956
G1 X4113 Y-7969
G1 X4113 Y-7983
G1 X4113 Y-7996
G1 X4113 Y-8009
G1 X4126 Y-8022
G1 X4126 Y-8035
G1 X4126 Y-8048
G1 X4126 Y-8061
G1 X4126 Y-8075
G1 X4126 Y-8088
G1 X4126 Y-8101
G1 X4126 Y-8114
G1 X4126 Y-8127
G1 X4140 Y-8140
G1 X4140 Y-8153
G1 X4153 Y-8167
G1 X4153 Y-8180
G1 X4153 Y-8193
G1 X4153 Y-8206
G1 X4153 Y-8219
G1 X4153 Y-8232
G1 X4166 Y-8245
G1 X4166 Y-8259
G1 X4166 Y-8272
G1 X4166 Y-8285
G1 X4166 Y-8298
G1 X4180 Y-8311
G1 X4180 Y-8324
G1 X4180 Y-8338
G1 X4180 Y-8351
G1 X4180 Y-8364
G1 X4180 Y-8377
G1 X4180 Y-8390
G1 X4193 Y-8403
G1 X4193 Y-8416
G1 X4193 Y-8430
G1 X4193 Y-8443
G1 X4206 Y-8456
G1 X4206 Y-8469
G1 X4206 Y-8482
G1 X4206 Y-8495
G1 X4206 Y-8508
G1 X4206 Y-8522
G1 X4220 Y-8535
G1 X4220 Y-8548
G1 X4220 Y-8561
G1 X4220 Y-8574
G1 X4233 Y-8587
G1 X4233 Y-8601
G1 X4233 Y-8614
G1 X4233 Y-8627
G1 X4233 Y-8640
G1 X4247 Y-8653
G1 X4247 Y-8666
G1 X4247 Y-8679
G1 X4247 Y-8693
G1 X4260 Y-8706
G1 X4260 Y-8719
G1 X4260 Y-8732
G1 X4260 Y-8745
G1 X4273 Y-8758
G1 X4273 Y-8771
G1 X4273 Y-8785
G1 X4273 Y-8798
G1 X4273 Y-8811
G1 X4273 Y-8824
G1 X4273 Y-8837
G1 X4287 Y-8850
G1 X4287 Y-8863
G1 X4287 Y-8877
G1 X4300 Y-8890
G1 X4300 Y-8903
G1 X4300 Y-8916
G1 X4313 Y-8929
G1 X4313 Y-8942
G1 X4313 Y-8956
G1 X4313 Y-8969
G1 X4313 Y-8982
G1 X4327 Y-8995
G1 X4327 Y-9008
G1 X4327 Y-9021
G1 X4340 Y-9034
G1 X4340 Y-9048
G1 X4340 Y-9061
G1 X4340 Y-9074
G1 X4340 Y-9087
G1 X4340 Y-9100
G1 X4353 Y-9113
G1 X4367 Y-9126
G1 X4367 Y-9140
G1 X4367 Y-9153
G1 X4367 Y-9166
G1 X4380 Y-9179
G1 X4380 Y-9192
G1 X4380 Y-9205
G1 X4393 Y-9219
G1 X4393 Y-9232
G1 X4393 Y-9245
G1 X4393 Y-9258
G1 X4407 Y-9271
G1 X4407 Y-9284
G1 X4407 Y-9297
G1 X4420 Y-9311
G1 X4420 Y-9324
G1 X4420 Y-9337
G1 X4434 Y-9350
G1 X4434 Y-9363
G1 X4434 Y-9376
G1 X4447 Y-9389
G1 X4447 Y-9403
G1 X4447 Y-9416
G1 X4460 Y-9429
G1 X4460 Y-9442
G1 X4460 Y-9455
G1 X4474 Y-9468
G1 X4474 Y-9482
G1 X4474 Y-9495
G1 X4487 Y-9508
G1 X4487 Y-9521
G1 X4500 Y-9534
G1 X4514 Y-9547
G1 X4514 Y-9560
G1 X4527 Y-9574
G1 X4527 Y-9587
G1 X4540 Y-9600
G1 X4540 Y-9613
G1 X4554 Y-9626
G1 X4567 Y-9639
G1 X4581 Y-9652
G1 X4581 Y-9666
G1 X4594 Y-9679
G1 X4607 Y-9692
G1 X4621 Y-9705
G1 X4634 Y-9718
G1 X4634 Y-9731
G1 X4647 Y-9744
G1 X4647 Y-9758
G1 X4661 Y-9771
G1 X4661 Y-9784
G1 X4674 Y-9797
G1 X4674 Y-9810
G1 X4687 Y-9823
G1 X4687 Y-9837
G1 X4701 Y-9850
G1 X4714 Y-9863
G1 X4714 Y-9876
G1 X4714 Y-9889
G1 X4727 Y-9902
G1 X4741 Y-9915
G1 X4754 Y-9929
G1 X4754 Y-9942
G1 X4768 Y-9955
G1 X4781 Y-9968
G1 X4794 Y-9981
G1 X4808 Y-9994
G1 X4808 Y-10007
G1 X4821 Y-10021
G1 X4821 Y-10034
G1 X4834 Y-10047
G1 X4848 Y-10060
G1 X4861 Y-10073
G1 X4874 Y-10086
G1 X4888 Y-10100
G1 X4901 Y-10113
G1 X4901 Y-10126
G1 X4914 Y-10139
G1 X4928 Y-10152
G1 X4928 Y-10165
G1 X4941 Y-10178
G1 X4955 Y-10192
G1 X4968 Y-10205
G1 X4981 Y-10218
G1 X4995 Y-10231
G1 X5008 Y-10244
G1 X5021 Y-10257
G1 X5035 Y-10270
G1 X5048 Y-10284
G1 X5061 Y-10297
G1 X5075 Y-10310
G1 X5088 Y-10323
G1 X5101 Y-10323
G1 X5115 Y-10336
G1 X5128 Y-10349
G1 X5142 Y-10362
G1 X5155 Y-10376
G1 X5168 Y-10389
G1 X5182 Y-10402
G1 X5195 Y-10415
G1 X5208 Y-10428
G1 X5222 Y-10441
G1 X5235 Y-10455
G1 X5248 Y-10455
G1 X5262 Y-10468
G1 X5275 Y-10481
G1 X5288 Y-10494
G1 X5302 Y-10494
G1 X5315 Y-10507
G1 X5329 Y-10507
G1 X5342 Y-10520
G1 X5355 Y-10520
G1 X5369 Y-10533
G1 X5382 Y-10547
G1 X5395 Y-10547
G1 X5409 Y-10560
G1 X5422 Y-10573
G1 X5435 Y-10573
G1 X5449 Y-10573
G1 X5462 Y-10586
G1 X5475 Y-10599
G1 X5489 Y-10599
G1 X5502 Y-10612
G1 X5516 Y-10625
G1 X5529 Y-10639
G1 X5542 Y-10639
G1 X5556 Y-10652
G1 X5569 Y-10652
G1 X5582 Y-10665
G1 X5596 Y-10678
G1 X5609 Y-10678
G1 X5622 Y-10691
G1 X5636 Y-10691
G1 X5649 Y-10704
G1 X5662 Y-10718
G1 X5676 Y-10718
G1 X5689 Y-10731
G1 X5703 Y-10731
G1 X5716 Y-10744
G1 X5729 Y-10744
G1 X5743 Y-10757
G1 X5756 Y-10757
G1 X5769 Y-10757
G1 X5783 Y-10770
G1 X5796 Y-10770
G1 X5809 Y-10783
G1 X5823 Y-10783
G1 X5836 Y-10783
G1 X5849 Y-10796
G1 X5863 Y-10796
G1 X5876 Y-10796
G1 X5890 Y-10810
G1 X5903 Y-10810
G1 X5916 Y-10823
G1 X5930 Y-10823
G1 X5943 Y-10836
G1 X5956 Y-10836
G1 X5970 Y-10849
G1 X5983 Y-10849
G1 X5996 Y-10862
G1 X6010 Y-10862
G1 X6023 Y-10862
G1 X6036 Y-10875
G1 X6050 Y-10875
G1 X6063 Y-10888
G1 X6077 Y-10888
G1 X6090 Y-10888
G1 X6103 Y-10902
G1 X6117 Y-10902
G1 X6130 Y-10902
G1 X6143 Y-10902
G1 X6157 Y-10902
G1 X6170 Y-10915
G1 X6183 Y-10915
G1 X6197 Y-10915
G1 X6210 Y-10915
G1 X6223 Y-10928
G1 X6237 Y-10928
G1 X6250 Y-10928
G1 X6264 Y-10928
G1 X6277 Y-10928
G1 X6290 Y-10928
G1 X6304 Y-10941
G1 X6317 Y-10941
G1 X6330 Y-10941
G1 X6344 Y-10941
G1 X6357 Y-10941
G1 X6370 Y-10941
G1 X6384 Y-10954
G1 X6397 Y-10954
G1 X6410 Y-10954
G1 X6424 Y-10954
G1 X6437 Y-10954
G1 X6451 Y-10954
G1 X6464 Y-10954
G1 X6477 Y-10954
G1 X6491 Y-10954
G1 X6504 Y-10954
G1 X6517 Y-10967
G1 X6531 Y-10967
G1 X6544 Y-10967
G1 X6557 Y-10967
G1 X6571 Y-10967
G1 X6584 Y-10967
G1 X6597 Y-10967
G1 X6611 Y-10980
G1 X6624 Y-10980
G1 X6638 Y-10980
G1 X6651 Y-10980
G1 X6664 Y-10980
G1 X6678 Y-10980
G1 X6691 Y-10980
G1 X6704 Y-10980
G1 X6718 Y-10980
G1 X6731 Y-10994
G1 X6744 Y-10994
G1 X6758 Y-10994
G1 X6771 Y-10994
G1 X6784 Y-10994
G1 X6798 Y-10994
G1 X6811 Y-10994
G1 X6825 Y-10994
G1 X6838 Y-10994
G1 X6851 Y-10994
G1 X6865 Y-10994
G1 X6878 Y-10994
G1 X6891 Y-10994
G1 X6905 Y-10994
G1 X6918 Y-10994
G1 X6931 Y-10994
G1 X6945 Y-10994
G1 X6958 Y-10994
G1 X6971 Y-10994
G1 X6985 Y-10994
G1 X6998 Y-10994
G1 X7012 Y-10980
G1 X7025 Y-10980
G1 X7038 Y-10980
G1 X7052 Y-10980
G1 X7065 Y-10980
G1 X7078 Y-10980
G1 X7092 Y-10980
G1 X7105 Y-10980
G1 X7118 Y-10980
G1 X7132 Y-10967
G1 X7145 Y-10967
G1 X7158 Y-10967
G1 X7172 Y-10954
G1 X7185 Y-10954
G1 X7199 Y-10954
G1 X7212 Y-10941
G1 X7225 Y-10941
G1 X7239 Y-10941
G1 X7252 Y-10941
G1 X7265 Y-10941
G1 X7279 Y-10941
G1 X7292 Y-10941
