; G-code generated by Image2Gcode App
; Source: ChatGPT Image Jul 26, 2025, 09_16_20 PM.png, Date: 2025-07-26 21:16:52
; Settings: Invert=False, Blur=1.0, Threshold=128
; NOTE: Coordinates are in STEPS, not millimeters (calibrated for this plotter)
G21 ; Use millimeters (ignored by Arduino - coordinates are steps)
G90 ; Use absolute positioning
G0 Z100.0

; --- Start Drawing ---
G0 Z100.0
G0 X664 Y-251
G0 Z0.0
G1 X664 Y-251
G1 X664 Y-263
G1 X664 Y-276
G1 X651 Y-289
G1 X651 Y-302
G1 X651 Y-315
G1 X651 Y-328
G1 X664 Y-340
G1 X664 Y-353
G1 X664 Y-366
G1 X664 Y-379
G1 X664 Y-392
G1 X664 Y-405
G1 X664 Y-417
G1 X664 Y-430
G1 X664 Y-443
G1 X664 Y-456
G1 X664 Y-469
G1 X664 Y-482
G1 X677 Y-495
G1 X677 Y-507
G1 X677 Y-520
G1 X677 Y-533
G1 X677 Y-546
G1 X677 Y-559
G1 X677 Y-572
G1 X677 Y-584
G1 X677 Y-597
G1 X690 Y-610
G1 X690 Y-623
G1 X690 Y-636
G1 X690 Y-649
G1 X690 Y-661
G1 X690 Y-674
G1 X690 Y-687
G1 X690 Y-700
G1 X703 Y-713
G1 X703 Y-726
G1 X703 Y-739
G1 X703 Y-751
G1 X703 Y-764
G1 X703 Y-777
G1 X716 Y-790
G1 X716 Y-803
G1 X716 Y-816
G1 X716 Y-828
G1 X716 Y-841
G1 X716 Y-854
G1 X716 Y-867
G1 X716 Y-880
G1 X716 Y-893
G1 X729 Y-905
G1 X729 Y-918
G1 X729 Y-931
G1 X729 Y-944
G1 X729 Y-957
G1 X729 Y-970
G1 X729 Y-982
G1 X729 Y-995
G1 X742 Y-1008
G1 X742 Y-1021
G1 X742 Y-1034
G1 X742 Y-1047
G1 X742 Y-1060
G1 X742 Y-1072
G1 X742 Y-1085
G1 X742 Y-1098
G1 X755 Y-1111
G1 X755 Y-1124
G1 X755 Y-1137
G1 X755 Y-1149
G1 X755 Y-1162
G1 X755 Y-1175
G1 X755 Y-1188
G1 X768 Y-1201
G1 X768 Y-1214
G1 X768 Y-1226
G1 X768 Y-1239
G1 X768 Y-1252
G1 X768 Y-1265
G1 X768 Y-1278
G1 X768 Y-1291
G1 X768 Y-1304
G1 X781 Y-1316
G1 X781 Y-1329
G1 X781 Y-1342
G1 X781 Y-1355
G1 X781 Y-1368
G1 X781 Y-1381
G1 X794 Y-1393
G1 X794 Y-1406
G1 X794 Y-1419
G1 X794 Y-1432
G1 X794 Y-1445
G1 X794 Y-1458
G1 X807 Y-1470
G1 X807 Y-1483
G1 X807 Y-1496
G1 X807 Y-1509
G1 X807 Y-1522
G1 X807 Y-1535
G1 X820 Y-1547
G1 X820 Y-1560
G1 X820 Y-1573
G1 X820 Y-1586
G1 X820 Y-1599
G1 X820 Y-1612
G1 X833 Y-1625
G1 X833 Y-1637
G1 X833 Y-1650
G1 X833 Y-1663
G1 X833 Y-1676
G1 X846 Y-1689
G1 X846 Y-1702
G1 X846 Y-1714
G1 X846 Y-1727
G1 X860 Y-1740
G1 X860 Y-1753
G1 X860 Y-1766
G1 X860 Y-1779
G1 X873 Y-1791
G1 X873 Y-1804
G1 X873 Y-1817
G1 X886 Y-1830
G1 X886 Y-1843
G1 X886 Y-1856
G1 X886 Y-1869
G1 X899 Y-1881
G1 X899 Y-1894
G1 X899 Y-1907
G1 X912 Y-1920
G1 X912 Y-1933
G1 X912 Y-1946
G1 X912 Y-1958
G1 X925 Y-1971
G1 X925 Y-1984
G1 X938 Y-1997
G1 X938 Y-2010
G1 X938 Y-2023
G1 X938 Y-2035
G1 X951 Y-2048
G1 X951 Y-2061
G1 X964 Y-2074
G1 X964 Y-2087
G1 X964 Y-2100
G1 X977 Y-2112
G1 X977 Y-2125
G1 X990 Y-2138
G1 X990 Y-2151
G1 X1003 Y-2164
G1 X1003 Y-2177
G1 X1003 Y-2190
G1 X1016 Y-2202
G1 X1016 Y-2215
G1 X1029 Y-2228
G1 X1029 Y-2241
G1 X1042 Y-2254
G1 X1042 Y-2267
G1 X1055 Y-2279
G1 X1055 Y-2292
G1 X1068 Y-2305
G1 X1068 Y-2318
G1 X1081 Y-2331
G1 X1081 Y-2344
G1 X1094 Y-2356
G1 X1094 Y-2369
G1 X1107 Y-2382
G1 X1107 Y-2395
G1 X1107 Y-2408
G1 X1120 Y-2421
G1 X1120 Y-2434
G1 X1133 Y-2446
G1 X1133 Y-2459
G1 X1147 Y-2472
G1 X1147 Y-2485
G1 X1160 Y-2498
G1 X1160 Y-2511
G1 X1173 Y-2523
G1 X1173 Y-2536
G1 X1186 Y-2549
G1 X1186 Y-2562
G1 X1199 Y-2575
G1 X1199 Y-2588
G1 X1212 Y-2600
G1 X1212 Y-2613
G1 X1225 Y-2626
G1 X1225 Y-2639
G1 X1225 Y-2652
G1 X1238 Y-2665
G1 X1238 Y-2677
G1 X1251 Y-2690
G1 X1251 Y-2703
G1 X1264 Y-2716
G1 X1264 Y-2729
G1 X1277 Y-2742
G1 X1277 Y-2755
G1 X1290 Y-2767
G1 X1290 Y-2780
G1 X1303 Y-2793
G1 X1303 Y-2806
G1 X1316 Y-2819
G1 X1316 Y-2832
G1 X1329 Y-2844
G1 X1329 Y-2857
G1 X1342 Y-2870
G1 X1342 Y-2883
G1 X1355 Y-2896
G1 X1355 Y-2909
G1 X1368 Y-2921
G1 X1368 Y-2934
G1 X1381 Y-2947
G1 X1381 Y-2960
G1 X1394 Y-2973
G1 X1394 Y-2986
G1 X1407 Y-2999
G1 X1407 Y-3011
G1 X1420 Y-3024
G1 X1420 Y-3037
G1 X1433 Y-3050
G1 X1433 Y-3063
G1 X1447 Y-3076
G1 X1447 Y-3088
G1 X1460 Y-3101
G1 X1460 Y-3114
G1 X1473 Y-3127
G1 X1473 Y-3140
G1 X1486 Y-3153
G1 X1486 Y-3165
G1 X1499 Y-3178
G1 X1499 Y-3191
G1 X1512 Y-3204
G1 X1512 Y-3217
G1 X1525 Y-3230
G1 X1525 Y-3242
G1 X1538 Y-3255
G1 X1538 Y-3268
G1 X1551 Y-3281
G1 X1551 Y-3294
G1 X1564 Y-3307
G1 X1564 Y-3320
G1 X1577 Y-3332
G1 X1577 Y-3345
G1 X1577 Y-3358
G1 X1590 Y-3371
G1 X1590 Y-3384
G1 X1603 Y-3397
G1 X1603 Y-3409
G1 X1616 Y-3422
G1 X1616 Y-3435
G1 X1629 Y-3448
G1 X1629 Y-3461
G1 X1642 Y-3474
G1 X1642 Y-3486
G1 X1655 Y-3499
G1 X1655 Y-3512
G1 X1655 Y-3525
G1 X1668 Y-3538
G1 X1668 Y-3551
G1 X1681 Y-3563
G1 X1681 Y-3576
G1 X1681 Y-3589
G1 X1694 Y-3602
G1 X1694 Y-3615
G1 X1707 Y-3628
G1 X1707 Y-3641
G1 X1720 Y-3653
G1 X1720 Y-3666
G1 X1720 Y-3679
G1 X1734 Y-3692
G1 X1734 Y-3705
G1 X1747 Y-3718
G1 X1747 Y-3730
G1 X1747 Y-3743
G1 X1760 Y-3756
G1 X1760 Y-3769
G1 X1773 Y-3782
G1 X1773 Y-3795
G1 X1773 Y-3807
G1 X1786 Y-3820
G1 X1786 Y-3833
G1 X1799 Y-3846
G1 X1799 Y-3859
G1 X1812 Y-3872
G1 X1812 Y-3885
G1 X1812 Y-3897
G1 X1825 Y-3910
G1 X1825 Y-3923
G1 X1838 Y-3936
G1 X1838 Y-3949
G1 X1838 Y-3962
G1 X1851 Y-3974
G1 X1851 Y-3987
G1 X1864 Y-4000
G1 X1864 Y-4013
G1 X1864 Y-4026
G1 X1877 Y-4039
G1 X1877 Y-4051
G1 X1877 Y-4064
G1 X1890 Y-4077
G1 X1890 Y-4090
G1 X1890 Y-4103
G1 X1903 Y-4116
G1 X1903 Y-4128
G1 X1916 Y-4141
G1 X1916 Y-4154
G1 X1916 Y-4167
G1 X1929 Y-4180
G1 X1929 Y-4193
G1 X1942 Y-4206
G1 X1942 Y-4218
G1 X1955 Y-4231
G1 X1955 Y-4244
G1 X1955 Y-4257
G1 X1968 Y-4270
G1 X1968 Y-4283
G1 X1981 Y-4295
G1 X1981 Y-4308
G1 X1981 Y-4321
G1 X1994 Y-4334
G1 X1994 Y-4347
G1 X2007 Y-4360
G1 X2007 Y-4372
G1 X2007 Y-4385
G1 X2020 Y-4398
G1 X2020 Y-4411
G1 X2034 Y-4424
G1 X2034 Y-4437
G1 X2034 Y-4450
G1 X2047 Y-4462
G1 X2047 Y-4475
G1 X2060 Y-4488
G1 X2060 Y-4501
G1 X2073 Y-4514
G1 X2073 Y-4527
G1 X2073 Y-4539
G1 X2086 Y-4552
G1 X2086 Y-4565
G1 X2099 Y-4578
G1 X2099 Y-4591
G1 X2112 Y-4604
G1 X2112 Y-4616
G1 X2125 Y-4629
G1 X2125 Y-4642
G1 X2125 Y-4655
G1 X2138 Y-4668
G1 X2138 Y-4681
G1 X2151 Y-4693
G1 X2151 Y-4706
G1 X2164 Y-4719
G1 X2164 Y-4732
G1 X2177 Y-4745
G1 X2177 Y-4758
G1 X2190 Y-4771
G1 X2190 Y-4783
G1 X2203 Y-4796
G1 X2203 Y-4809
G1 X2216 Y-4822
G1 X2216 Y-4835
G1 X2229 Y-4848
G1 X2229 Y-4860
G1 X2242 Y-4873
G1 X2242 Y-4886
G1 X2255 Y-4899
G1 X2255 Y-4912
G1 X2268 Y-4925
G1 X2268 Y-4937
G1 X2281 Y-4950
G1 X2281 Y-4963
G1 X2294 Y-4976
G1 X2294 Y-4989
G1 X2307 Y-5002
G1 X2307 Y-5015
G1 X2321 Y-5027
G1 X2321 Y-5040
G1 X2334 Y-5053
G1 X2347 Y-5066
G1 X2347 Y-5079
G1 X2360 Y-5092
G1 X2360 Y-5104
G1 X2373 Y-5117
G1 X2373 Y-5130
G1 X2386 Y-5143
G1 X2399 Y-5156
G1 X2399 Y-5169
G1 X2412 Y-5181
G1 X2425 Y-5194
G1 X2425 Y-5207
G1 X2438 Y-5220
G1 X2438 Y-5233
G1 X2451 Y-5246
G1 X2464 Y-5258
G1 X2464 Y-5271
G1 X2477 Y-5284
G1 X2490 Y-5297
G1 X2490 Y-5310
G1 X2503 Y-5323
G1 X2516 Y-5336
G1 X2516 Y-5348
G1 X2529 Y-5361
G1 X2542 Y-5374
G1 X2555 Y-5387
G1 X2555 Y-5400
G1 X2568 Y-5413
G1 X2581 Y-5425
G1 X2594 Y-5438
G1 X2594 Y-5451
G1 X2607 Y-5464
G1 X2621 Y-5477
G1 X2634 Y-5490
G1 X2647 Y-5502
G1 X2647 Y-5515
G1 X2660 Y-5528
G1 X2673 Y-5541
G1 X2686 Y-5554
G1 X2699 Y-5567
G1 X2712 Y-5580
G1 X2725 Y-5592
G1 X2738 Y-5605
G1 X2751 Y-5618
G1 X2764 Y-5631
G1 X2777 Y-5644
G1 X2790 Y-5644
G1 X2803 Y-5657
G1 X2816 Y-5657
G1 X2829 Y-5669
G1 X2842 Y-5669
G1 X2855 Y-5682
G1 X2868 Y-5682
G1 X2881 Y-5695
G1 X2894 Y-5695
G1 X2907 Y-5708
G1 X2921 Y-5708
G1 X2934 Y-5721
G1 X2947 Y-5721
G1 X2960 Y-5734
G1 X2973 Y-5746
G1 X2986 Y-5746
G1 X2999 Y-5759
G1 X3012 Y-5772
G1 X3025 Y-5772
G1 X3038 Y-5785
G1 X3051 Y-5798
G1 X3064 Y-5798
G1 X3077 Y-5811
G1 X3090 Y-5823
G1 X3103 Y-5836
G1 X3116 Y-5836
G1 X3129 Y-5849
G1 X3129 Y-5862
G1 X3142 Y-5875
G1 X3155 Y-5888
G1 X3168 Y-5888
G1 X3181 Y-5901
G1 X3194 Y-5913
G1 X3208 Y-5926
G1 X3221 Y-5926
G1 X3234 Y-5939
G1 X3247 Y-5952
G1 X3260 Y-5952
G1 X3273 Y-5952
G1 X3286 Y-5965
G1 X3299 Y-5965
G1 X3312 Y-5978
G1 X3325 Y-5978
G1 X3338 Y-5978
G1 X3351 Y-5990
G1 X3364 Y-5990
G1 X3377 Y-5990
G1 X3390 Y-6003
G1 X3403 Y-6003
G1 X3416 Y-6016
G1 X3429 Y-6016
G1 X3442 Y-6029
G1 X3455 Y-6029
G1 X3468 Y-6029
G1 X3481 Y-6042
G1 X3494 Y-6042
G1 X3508 Y-6042
G1 X3521 Y-6055
G1 X3534 Y-6055
G1 X3547 Y-6055
G1 X3560 Y-6067
G1 X3573 Y-6067
G1 X3586 Y-6067
G1 X3599 Y-6080
G1 X3612 Y-6080
G1 X3625 Y-6093
G1 X3638 Y-6093
G1 X3651 Y-6093
G1 X3664 Y-6106
G1 X3677 Y-6106
G1 X3690 Y-6119
G1 X3703 Y-6119
G1 X3716 Y-6119
G1 X3729 Y-6132
G1 X3742 Y-6132
G1 X3755 Y-6145
G1 X3768 Y-6145
G1 X3781 Y-6145
G1 X3795 Y-6157
G1 X3808 Y-6157
G1 X3821 Y-6170
G1 X3834 Y-6170
G1 X3847 Y-6170
G1 X3860 Y-6183
G1 X3873 Y-6183
G1 X3886 Y-6183
G1 X3899 Y-6196
G1 X3912 Y-6196
G1 X3925 Y-6209
G1 X3938 Y-6209
G1 X3951 Y-6222
G1 X3964 Y-6222
G1 X3977 Y-6222
G1 X3990 Y-6234
G1 X4003 Y-6234
G1 X4016 Y-6234
G1 X4029 Y-6247
G1 X4042 Y-6247
G1 X4055 Y-6260
G1 X4068 Y-6260
G1 X4081 Y-6260
G1 X4095 Y-6273
G1 X4108 Y-6273
G1 X4121 Y-6273
G1 X4134 Y-6286
G1 X4147 Y-6286
G1 X4160 Y-6299
G1 X4173 Y-6299
G1 X4186 Y-6299
G1 X4199 Y-6311
G1 X4212 Y-6311
G1 X4225 Y-6311
G1 X4238 Y-6324
G1 X4251 Y-6324
G1 X4264 Y-6324
G1 X4277 Y-6337
G1 X4290 Y-6337
G1 X4303 Y-6350
G1 X4316 Y-6350
G1 X4329 Y-6350
G1 X4342 Y-6363
G1 X4355 Y-6363
G1 X4368 Y-6363
G1 X4381 Y-6376
G1 X4395 Y-6376
G1 X4408 Y-6388
G1 X4421 Y-6388
G1 X4434 Y-6388
G1 X4447 Y-6401
G1 X4460 Y-6401
G1 X4473 Y-6414
G1 X4486 Y-6414
G1 X4499 Y-6414
G1 X4512 Y-6427
G1 X4525 Y-6427
G1 X4538 Y-6427
G1 X4551 Y-6440
G1 X4564 Y-6440
G1 X4577 Y-6453
G1 X4590 Y-6453
G1 X4603 Y-6453
G1 X4616 Y-6466
G1 X4629 Y-6466
G1 X4642 Y-6478
G1 X4655 Y-6478
G1 X4668 Y-6478
G1 X4682 Y-6491
G1 X4695 Y-6491
G1 X4708 Y-6504
G1 X4721 Y-6504
G1 X4734 Y-6504
G1 X4747 Y-6517
G1 X4760 Y-6517
G1 X4773 Y-6530
G1 X4786 Y-6530
G1 X4799 Y-6543
G1 X4812 Y-6543
G1 X4825 Y-6555
G1 X4838 Y-6555
G1 X4851 Y-6568
G1 X4864 Y-6568
G1 X4877 Y-6581
G1 X4890 Y-6581
G1 X4903 Y-6594
G1 X4916 Y-6607
G1 X4929 Y-6607
G1 X4942 Y-6620
G1 X4955 Y-6632
G1 X4968 Y-6632
G1 X4982 Y-6645
G1 X4995 Y-6658
G1 X5008 Y-6671
G1 X5021 Y-6671
G1 X5034 Y-6684
G1 X5047 Y-6697
G1 X5060 Y-6710
G1 X5073 Y-6722
G1 X5086 Y-6735
G1 X5099 Y-6748
G1 X5112 Y-6761
G1 X5125 Y-6774
G1 X5138 Y-6787
G1 X5151 Y-6799
G1 X5164 Y-6799
G1 X5177 Y-6812
G1 X5190 Y-6825
G1 X5203 Y-6838
G1 X5216 Y-6851
G1 X5229 Y-6864
G1 X5242 Y-6864
G1 X5255 Y-6876
G1 X5269 Y-6876
G0 Z100.0
G0 X5269 Y-6876
G0 Z0.0
G1 X5269 Y-6876
G1 X5282 Y-6889
G0 Z100.0
G0 X5282 Y-6889
G0 Z0.0
G1 X5282 Y-6889
G1 X5282 Y-6902
G0 Z100.0
G0 X5282 Y-6902
G0 Z0.0
G1 X5282 Y-6902
G1 X5295 Y-6915
G1 X5308 Y-6928
G1 X5321 Y-6941
G1 X5321 Y-6953
G1 X5321 Y-6966
G1 X5321 Y-6979
G1 X5334 Y-6992
G1 X5334 Y-7005
G1 X5334 Y-7018
G1 X5334 Y-7031
G1 X5334 Y-7043
G1 X5334 Y-7056
G1 X5347 Y-7069
G1 X5347 Y-7082
G1 X5347 Y-7095
G1 X5347 Y-7108
G1 X5347 Y-7120
G1 X5347 Y-7133
G1 X5347 Y-7146
G1 X5347 Y-7159
G1 X5347 Y-7172
G1 X5347 Y-7185
G1 X5347 Y-7197
G1 X5347 Y-7210
G1 X5347 Y-7223
G1 X5347 Y-7236
G1 X5347 Y-7249
G1 X5347 Y-7262
G1 X5347 Y-7275
G1 X5347 Y-7287
G1 X5347 Y-7300
G1 X5347 Y-7313
G1 X5347 Y-7326
G1 X5347 Y-7339
G1 X5347 Y-7352
G1 X5347 Y-7364
G1 X5347 Y-7377
G1 X5347 Y-7390
G1 X5347 Y-7403
G1 X5347 Y-7416
G1 X5347 Y-7429
G1 X5347 Y-7441
G1 X5347 Y-7454
G1 X5334 Y-7467
G1 X5334 Y-7480
G1 X5334 Y-7493
G1 X5334 Y-7506
G1 X5334 Y-7518
G1 X5334 Y-7531
G1 X5334 Y-7544
G1 X5334 Y-7557
G1 X5334 Y-7570
G1 X5334 Y-7583
G1 X5321 Y-7596
G1 X5321 Y-7608
G1 X5321 Y-7621
G1 X5321 Y-7634
G1 X5321 Y-7647
G1 X5321 Y-7660
G1 X5321 Y-7673
G1 X5321 Y-7685
G1 X5321 Y-7698
G0 Z100.0
G0 X5321 Y-7698
G0 Z0.0
G1 X5321 Y-7698
G1 X5321 Y-7711
G0 Z100.0
G0 X5321 Y-7711
G0 Z0.0
G1 X5321 Y-7711
G1 X5321 Y-7724
G0 Z100.0
G0 X5321 Y-7724
G0 Z0.0
G1 X5321 Y-7724
G1 X5321 Y-7737
G1 X5308 Y-7750
G1 X5308 Y-7762
G1 X5295 Y-7775
G1 X5295 Y-7788
G1 X5295 Y-7801
G1 X5282 Y-7814
G1 X5269 Y-7827
G1 X5269 Y-7840
G1 X5255 Y-7852
G1 X5242 Y-7865
G1 X5242 Y-7878
G1 X5229 Y-7891
G1 X5229 Y-7904
G1 X5216 Y-7917
G1 X5216 Y-7929
G1 X5203 Y-7942
G1 X5203 Y-7955
G1 X5190 Y-7968
G1 X5190 Y-7981
G1 X5177 Y-7994
G1 X5177 Y-8006
G1 X5177 Y-8019
G1 X5164 Y-8032
G1 X5164 Y-8045
G1 X5164 Y-8058
G1 X5151 Y-8071
G1 X5151 Y-8083
G1 X5151 Y-8096
G1 X5151 Y-8109
G1 X5138 Y-8122
G1 X5138 Y-8135
G1 X5138 Y-8148
G1 X5138 Y-8161
G1 X5125 Y-8173
G1 X5125 Y-8186
G1 X5125 Y-8199
G1 X5125 Y-8212
G1 X5125 Y-8225
G1 X5112 Y-8238
G1 X5112 Y-8250
G1 X5112 Y-8263
G1 X5112 Y-8276
G1 X5112 Y-8289
G1 X5112 Y-8302
G1 X5099 Y-8315
G1 X5099 Y-8327
G1 X5099 Y-8340
G1 X5099 Y-8353
G1 X5099 Y-8366
G1 X5099 Y-8379
G1 X5086 Y-8392
G1 X5086 Y-8405
G1 X5086 Y-8417
G1 X5086 Y-8430
G1 X5086 Y-8443
G1 X5086 Y-8456
G1 X5086 Y-8469
G1 X5086 Y-8482
G1 X5086 Y-8494
G1 X5086 Y-8507
G1 X5086 Y-8520
G1 X5073 Y-8533
G1 X5073 Y-8546
G1 X5073 Y-8559
G1 X5073 Y-8571
G1 X5073 Y-8584
G1 X5073 Y-8597
G1 X5073 Y-8610
G1 X5073 Y-8623
G1 X5073 Y-8636
G0 Z100.0
G0 X5073 Y-8636
G0 Z0.0
G1 X5073 Y-8636
G1 X5060 Y-8648
G0 Z100.0
G0 X5060 Y-8648
G0 Z0.0
G1 X5060 Y-8648
G1 X5047 Y-8648
G1 X5034 Y-8648
G1 X5021 Y-8648
G1 X5008 Y-8661
G1 X4995 Y-8661
G1 X4982 Y-8661
G1 X4968 Y-8674
G1 X4955 Y-8687
G1 X4942 Y-8700
G1 X4929 Y-8713
G1 X4916 Y-8726
G1 X4903 Y-8738
G1 X4903 Y-8751
G1 X4890 Y-8764
G1 X4890 Y-8777
G1 X4877 Y-8790
G1 X4877 Y-8803
G1 X4864 Y-8815
G1 X4864 Y-8828
G1 X4864 Y-8841
G1 X4864 Y-8854
G1 X4851 Y-8867
G1 X4851 Y-8880
G1 X4851 Y-8892
G1 X4851 Y-8905
G1 X4851 Y-8918
G1 X4851 Y-8931
G1 X4851 Y-8944
G1 X4851 Y-8957
G1 X4851 Y-8970
G1 X4851 Y-8982
G1 X4851 Y-8995
G1 X4851 Y-9008
G1 X4851 Y-9021
G1 X4851 Y-9034
G1 X4851 Y-9047
G1 X4851 Y-9059
G1 X4851 Y-9072
G1 X4851 Y-9085
G1 X4864 Y-9098
G1 X4864 Y-9111
G1 X4864 Y-9124
G1 X4864 Y-9136
G1 X4877 Y-9149
G1 X4877 Y-9162
G1 X4877 Y-9175
G1 X4890 Y-9188
G1 X4890 Y-9201
G1 X4890 Y-9213
G1 X4890 Y-9226
G1 X4890 Y-9239
G1 X4890 Y-9252
G1 X4890 Y-9265
G1 X4903 Y-9278
G1 X4903 Y-9291
G1 X4916 Y-9303
G1 X4929 Y-9316
G0 Z100.0
G0 X4929 Y-9316
G0 Z0.0
G1 X4929 Y-9316
G1 X4942 Y-9329
G0 Z100.0
G0 X4942 Y-9329
G0 Z0.0
G1 X4942 Y-9329
G1 X4942 Y-9342
G1 X4942 Y-9355
G1 X4942 Y-9368
G1 X4942 Y-9380
G1 X4942 Y-9393
G1 X4955 Y-9406
G1 X4955 Y-9419
G0 Z100.0
G0 X4942 Y-9329
G0 Z0.0
G1 X4942 Y-9329
G1 X4942 Y-9316
G0 Z100.0
G0 X4942 Y-9316
G0 Z0.0
G1 X4942 Y-9316
G1 X4929 Y-9316
G0 Z100.0
G0 X4942 Y-9316
G0 Z0.0
G1 X4942 Y-9316
G1 X4955 Y-9303
G1 X4955 Y-9291
G1 X4955 Y-9278
G1 X4968 Y-9265
G1 X4968 Y-9252
G1 X4968 Y-9239
G1 X4968 Y-9226
G1 X4982 Y-9213
G1 X4982 Y-9201
G1 X4982 Y-9188
G1 X4982 Y-9175
G1 X4995 Y-9162
G1 X4995 Y-9149
G1 X4995 Y-9136
G1 X5008 Y-9124
G1 X5008 Y-9111
G1 X5008 Y-9098
G1 X5021 Y-9085
G1 X5021 Y-9072
G1 X5034 Y-9059
G1 X5047 Y-9047
G1 X5060 Y-9034
G0 Z100.0
G0 X5060 Y-9034
G0 Z0.0
G1 X5060 Y-9034
G1 X5073 Y-9047
G0 Z100.0
G0 X5073 Y-9047
G0 Z0.0
G1 X5073 Y-9047
G1 X5073 Y-9059
G1 X5073 Y-9072
G1 X5073 Y-9085
G1 X5073 Y-9098
G1 X5073 Y-9111
G1 X5086 Y-9124
G1 X5086 Y-9136
G1 X5086 Y-9149
G1 X5086 Y-9162
G1 X5086 Y-9175
G1 X5086 Y-9188
G1 X5086 Y-9201
G1 X5086 Y-9213
G1 X5086 Y-9226
G1 X5086 Y-9239
G1 X5086 Y-9252
G1 X5086 Y-9265
G1 X5086 Y-9278
G1 X5086 Y-9291
G1 X5086 Y-9303
G1 X5086 Y-9316
G1 X5099 Y-9329
G1 X5099 Y-9342
G1 X5099 Y-9355
G1 X5099 Y-9368
G1 X5099 Y-9380
G1 X5099 Y-9393
G1 X5099 Y-9406
G1 X5099 Y-9419
G1 X5099 Y-9432
G1 X5112 Y-9445
G1 X5112 Y-9457
G1 X5112 Y-9470
G1 X5112 Y-9483
G1 X5112 Y-9496
G1 X5112 Y-9509
G1 X5112 Y-9522
G1 X5125 Y-9535
G1 X5125 Y-9547
